X:51
T:Little Swiss
M:6/8
L:1/8
B:Thompson's Compleat Collection of 200 Favourite Country Dances, vol. 1 (London, 1757)
Z:Transcribed and edited by Fynnian Titford-Mock, 2007
Z:abc's:AK/Fiddler's Companion
K:G
B2(d d2)e|dec dBG|B2(d d)ef|gfg (A/B/c)A|(B/c/d)B (c/d/e)c|(dfg) dBd|(e/f/g)e dBG|A3 G3:|
|:(BG)B (dB)d|gfe dBG|(BG)B dBd|fga ABc|(d/e/f)d (e/f/g)e|dec dBG|(e/f/g)e dBG|A3 G3:|

